X:0586
T:Earl Marshal's Reel.
M:C
L:1/8
Q:1/4=120
I: :| ||
Z:Jack Campin * www.campin.me.uk * 2009
K:G
G2 G>B d>BBd |B/c/d GB dBBg  | G2G>B         dBBd        |e/f/g d>B BAAB  :|
g>ag>d e2-eg |d>gB>g   d>gB>g|(b/a/g/f/ g>)d e2 e>g      |d<Bg>B    B<AA>B |
g>ag>d e2-e>g|d>gB>g   d>gB>g|(b/a/g/f/ g>)d e2(e/g/f/g/)|d<Bg>B    B<AA>B|]
<end>
<start>
